Newaita-dark/apps/128/kpat.svg

<?xml version="1.0" encoding="UTF-8"?>
<svg xmlns="http://www.w3.org/2000/svg" xmlns:xlink="http://www.w3.org/1999/xlink" width="128pt" height="128pt" viewBox="0 0 128 128" version="1.1">
<defs>
<linearGradient id="linear0" gradientUnits="userSpaceOnUse" x1="254" y1="233.5" x2="254" y2="254.666672" gradientTransform="matrix(0.250024,0,0,0.250024,-0.0000152602,53.75514)">
<stop offset="0" style="stop-color:rgb(0%,0%,0%);stop-opacity:0.27451;"/>
<stop offset="1" style="stop-color:rgb(0%,0%,0%);stop-opacity:0;"/>
</linearGradient>
<radialGradient id="radial0" gradientUnits="userSpaceOnUse" cx="450.908936" cy="189.579361" fx="450.908936" fy="189.579361" r="21.166656" gradientTransform="matrix(0.000000696681,-0.31253,-0.562554,-0.000000406154,200.584335,254.38133)">
<stop offset="0" style="stop-color:rgb(0%,0%,0%);stop-opacity:0.313725;"/>
<stop offset="0.222222" style="stop-color:rgb(0%,0%,0%);stop-opacity:0.27451;"/>
<stop offset="1" style="stop-color:rgb(0%,0%,0%);stop-opacity:0;"/>
</radialGradient>
<radialGradient id="radial1" gradientUnits="userSpaceOnUse" cx="450.908936" cy="189.579361" fx="450.908936" fy="189.579361" r="21.166656" gradientTransform="matrix(-0.000000696681,0.31253,0.562554,0.000000406154,-73.572195,-30.109915)">
<stop offset="0" style="stop-color:rgb(0%,0%,0%);stop-opacity:0.313725;"/>
<stop offset="0.222222" style="stop-color:rgb(0%,0%,0%);stop-opacity:0.27451;"/>
<stop offset="1" style="stop-color:rgb(0%,0%,0%);stop-opacity:0;"/>
</radialGradient>
<radialGradient id="radial2" gradientUnits="userSpaceOnUse" cx="450.908936" cy="189.579361" fx="450.908936" fy="189.579361" r="21.166656" gradientTransform="matrix(-0.000000696681,-0.31253,0.562554,-0.000000406154,-73.572195,254.38133)">
<stop offset="0" style="stop-color:rgb(0%,0%,0%);stop-opacity:0.313725;"/>
<stop offset="0.222222" style="stop-color:rgb(0%,0%,0%);stop-opacity:0.27451;"/>
<stop offset="1" style="stop-color:rgb(0%,0%,0%);stop-opacity:0;"/>
</radialGradient>
<radialGradient id="radial3" gradientUnits="userSpaceOnUse" cx="450.908936" cy="189.579361" fx="450.908936" fy="189.579361" r="21.166656" gradientTransform="matrix(0.000000696681,0.31253,-0.562554,0.000000406154,200.584327,-30.109917)">
<stop offset="0" style="stop-color:rgb(0%,0%,0%);stop-opacity:0.313725;"/>
<stop offset="0.222222" style="stop-color:rgb(0%,0%,0%);stop-opacity:0.27451;"/>
<stop offset="1" style="stop-color:rgb(0%,0%,0%);stop-opacity:0;"/>
</radialGradient>
<linearGradient id="linear1" gradientUnits="userSpaceOnUse" x1="243.416656" y1="233.5" x2="243.416656" y2="-168.666656" gradientTransform="matrix(0.250024,0,0,0.250024,-7.938256,53.755133)">
<stop offset="0" style="stop-color:rgb(87.843137%,87.843137%,87.843137%);stop-opacity:1;"/>
<stop offset="1" style="stop-color:rgb(96.078431%,96.078431%,96.078431%);stop-opacity:1;"/>
</linearGradient>
<linearGradient id="linear2" gradientUnits="userSpaceOnUse" x1="211.666672" y1="-31.083334" x2="211.666672" y2="95.916664" gradientTransform="matrix(1,0,0,1,42.33334,0)">
<stop offset="0" style="stop-color:rgb(93.72549%,32.54902%,31.372549%);stop-opacity:1;"/>
<stop offset="1" style="stop-color:rgb(95.686275%,26.27451%,21.176471%);stop-opacity:1;"/>
</linearGradient>
<linearGradient id="linear3" gradientUnits="userSpaceOnUse" x1="211.666672" y1="-31.083334" x2="211.666672" y2="95.916664" gradientTransform="matrix(0.235294,0,0,-0.235294,98.361969,192.568695)">
<stop offset="0" style="stop-color:rgb(93.72549%,32.54902%,31.372549%);stop-opacity:1;"/>
<stop offset="1" style="stop-color:rgb(95.686275%,26.27451%,21.176471%);stop-opacity:1;"/>
</linearGradient>
<linearGradient id="linear4" gradientUnits="userSpaceOnUse" x1="370.416656" y1="-94.583336" x2="370.416656" y2="-147.5" gradientTransform="matrix(3.779528,0,0,3.779528,0,812.598389)">
<stop offset="0" style="stop-color:rgb(93.72549%,32.54902%,31.372549%);stop-opacity:1;"/>
<stop offset="1" style="stop-color:rgb(95.686275%,26.27451%,21.176471%);stop-opacity:1;"/>
</linearGradient>
</defs>
<g id="surface1">
<path style=" stroke:none;fill-rule:nonzero;fill:url(#linear0);" d="M 31.753906 112.824219 L 95.257812 112.824219 L 95.257812 116.699219 L 31.753906 116.699219 Z M 31.753906 112.824219 "/>
<path style=" stroke:none;fill-rule:nonzero;fill:url(#radial0);" d="M 95.257812 112.136719 L 105.84375 112.136719 L 105.84375 106.84375 L 95.257812 106.84375 Z M 95.257812 112.136719 "/>
<path style=" stroke:none;fill-rule:nonzero;fill:url(#radial1);" d="M 31.753906 112.136719 L 21.167969 112.136719 L 21.167969 117.429688 L 31.753906 117.429688 Z M 31.753906 112.136719 "/>
<path style=" stroke:none;fill-rule:nonzero;fill:url(#radial2);" d="M 31.753906 112.136719 L 21.167969 112.136719 L 21.167969 106.84375 L 31.753906 106.84375 Z M 31.753906 112.136719 "/>
<path style=" stroke:none;fill-rule:nonzero;fill:url(#radial3);" d="M 95.257812 112.136719 L 105.84375 112.136719 L 105.84375 117.429688 L 95.257812 117.429688 Z M 95.257812 112.136719 "/>
<path style=" stroke:none;fill-rule:nonzero;fill:url(#linear1);" d="M 29.105469 11.585938 L 97.90625 11.585938 C 100.828125 11.585938 103.199219 13.953125 103.199219 16.875 L 103.199219 106.84375 C 103.199219 109.765625 100.828125 112.136719 97.90625 112.136719 L 29.105469 112.136719 C 26.183594 112.136719 23.816406 109.765625 23.816406 106.84375 L 23.816406 16.875 C 23.816406 13.953125 26.183594 11.585938 29.105469 11.585938 Z M 29.105469 11.585938 "/>
<path style=" stroke:none;fill-rule:nonzero;fill:rgb(100%,100%,100%);fill-opacity:0.392157;" d="M 29.105469 11.585938 C 26.175781 11.585938 23.816406 13.945312 23.816406 16.875 L 23.816406 18.199219 C 23.816406 15.269531 26.175781 12.90625 29.105469 12.90625 L 97.90625 12.90625 C 100.835938 12.90625 103.199219 15.269531 103.199219 18.199219 L 103.199219 16.875 C 103.199219 13.945312 100.835938 11.585938 97.90625 11.585938 Z M 29.105469 11.585938 "/>
<path style=" stroke:none;fill-rule:nonzero;fill:rgb(0%,0%,0%);fill-opacity:0.235294;" d="M 29.105469 112.136719 C 26.175781 112.136719 23.816406 109.777344 23.816406 106.84375 L 23.816406 105.519531 C 23.816406 108.453125 26.175781 110.8125 29.105469 110.8125 L 97.90625 110.8125 C 100.835938 110.8125 103.199219 108.453125 103.199219 105.519531 L 103.199219 106.84375 C 103.199219 109.777344 100.835938 112.136719 97.90625 112.136719 Z M 29.105469 112.136719 "/>
<path style=" stroke:none;fill-rule:nonzero;fill:rgb(12.941177%,12.941177%,12.941177%);fill-opacity:1;" d="M 29.105469 11.210938 C 25.972656 11.210938 23.441406 13.742188 23.441406 16.875 L 23.441406 106.84375 C 23.441406 109.976562 25.972656 112.511719 29.105469 112.511719 L 97.90625 112.511719 C 101.039062 112.511719 103.570312 109.976562 103.570312 106.84375 L 103.570312 16.875 C 103.570312 13.742188 101.039062 11.210938 97.90625 11.210938 Z M 29.105469 11.960938 L 97.90625 11.960938 C 100.636719 11.960938 102.820312 14.144531 102.820312 16.875 L 102.820312 106.84375 C 102.820312 109.574219 100.636719 111.761719 97.90625 111.761719 L 29.105469 111.761719 C 26.375 111.761719 24.191406 109.574219 24.191406 106.84375 L 24.191406 16.875 C 24.191406 14.144531 26.375 11.960938 29.105469 11.960938 Z M 29.105469 11.960938 "/>
<path style="fill-rule:nonzero;fill:url(#linear2);stroke-width:3;stroke-linecap:round;stroke-linejoin:round;stroke:rgb(12.941177%,12.941177%,12.941177%);stroke-opacity:1;stroke-miterlimit:4;" d="M 216.963656 -31.080063 C 196.434366 -31.080063 179.920318 -14.566015 179.920318 5.963274 C 179.920318 6.260121 179.920318 6.572591 179.920318 6.869438 C 179.935942 6.947555 179.935942 7.025673 179.935942 7.10379 C 179.935942 7.353766 179.951565 7.603742 179.967189 7.853719 C 179.967189 7.869342 179.967189 7.884966 179.967189 7.900589 C 181.763892 44.100257 233.196481 75.112921 254.006994 95.923433 C 274.801883 75.112921 326.250095 44.100257 328.031175 7.900589 C 328.031175 7.884966 328.031175 7.869342 328.031175 7.853719 C 328.046798 7.603742 328.062422 7.353766 328.062422 7.10379 C 328.062422 7.025673 328.062422 6.947555 328.078045 6.869438 C 328.078045 6.572591 328.078045 6.260121 328.078045 5.963274 C 328.078045 -14.566015 311.563997 -31.080063 291.034708 -31.080063 C 270.521042 -31.080063 254.006994 -14.566015 254.006994 5.963274 C 254.006994 -14.566015 237.477322 -31.080063 216.963656 -31.080063 Z M 216.963656 -31.080063 " transform="matrix(0.250024,0,0,0.250024,0,53.755133)"/>
<path style="fill-rule:nonzero;fill:url(#linear3);stroke-width:3;stroke-linecap:round;stroke-linejoin:round;stroke:rgb(12.941177%,12.941177%,12.941177%);stroke-opacity:1;stroke-miterlimit:4;" d="M 139.455433 199.882256 C 134.627769 199.882256 130.737515 195.992002 130.737515 191.164338 C 130.737515 191.101844 130.737515 191.023727 130.737515 190.945609 C 130.737515 190.929986 130.737515 190.914362 130.737515 190.898739 C 130.737515 190.836245 130.737515 190.773751 130.753139 190.72688 C 130.753139 190.711257 130.753139 190.711257 130.753139 190.711257 C 131.174973 182.196445 143.267569 174.900266 148.17335 169.994485 C 153.063508 174.900266 165.171727 182.196445 165.593562 190.711257 C 165.593562 190.773751 165.593562 190.836245 165.593562 190.898739 C 165.593562 190.914362 165.593562 190.929986 165.593562 190.945609 C 165.593562 191.023727 165.593562 191.101844 165.593562 191.164338 C 165.593562 195.992002 161.718932 199.882256 156.875644 199.882256 C 152.04798 199.882256 148.17335 195.992002 148.17335 191.164338 C 148.17335 195.992002 144.283097 199.882256 139.455433 199.882256 Z M 139.455433 199.882256 " transform="matrix(0.250024,0,0,0.250024,0,53.755133)"/>
<path style="fill-rule:nonzero;fill:url(#linear4);stroke-width:11.338583;stroke-linecap:round;stroke-linejoin:round;stroke:rgb(12.941177%,12.941177%,12.941177%);stroke-opacity:1;stroke-miterlimit:4;" d="M 1379.986401 255.093763 C 1346.741542 255.093763 1319.992127 286.33094 1319.992127 325.126449 L 1319.992127 425.097223 C 1319.992127 436.198526 1328.908598 445.114997 1340.009901 445.114997 C 1351.052154 445.114997 1360.027676 436.198526 1360.027676 425.097223 L 1360.027676 375.141361 L 1439.980675 375.141361 L 1439.980675 425.097223 C 1439.980675 436.198526 1448.897146 445.114997 1459.998449 445.114997 C 1471.099752 445.114997 1480.016224 436.198526 1480.016224 425.097223 L 1480.016224 325.126449 C 1480.016224 286.33094 1453.266808 255.093763 1420.02195 255.093763 Z M 1379.986401 295.129312 L 1420.02195 295.129312 C 1431.064203 295.129312 1439.980675 308.474495 1439.980675 325.126449 L 1439.980675 345.144224 L 1360.027676 345.144224 L 1360.027676 325.126449 C 1360.027676 308.474495 1368.944147 295.129312 1379.986401 295.129312 Z M 1379.986401 295.129312 " transform="matrix(0.0661521,0,0,0.0661521,0,0)"/>
</g>
</svg>

<svg xmlns="http://www.w3.org/2000/svg" width="128pt" height="128pt" viewBox="0 0 128 128"><defs><linearGradient id="a" gradientUnits="userSpaceOnUse" x1="254" y1="233.5" x2="254" y2="254.667" gradientTransform="matrix(.25002 0 0 .25002 0 53.755)"><stop offset="0" stop-opacity=".275"/><stop offset="1" stop-opacity="0"/></linearGradient><radialGradient id="b" gradientUnits="userSpaceOnUse" cx="450.909" cy="189.579" fx="450.909" fy="189.579" r="21.167" gradientTransform="matrix(0 -.31253 -.56255 0 200.584 254.381)"><stop offset="0" stop-opacity=".314"/><stop offset=".222" stop-opacity=".275"/><stop offset="1" stop-opacity="0"/></radialGradient><radialGradient id="c" gradientUnits="userSpaceOnUse" cx="450.909" cy="189.579" fx="450.909" fy="189.579" r="21.167" gradientTransform="matrix(0 .31253 .56255 0 -73.572 -30.11)"><stop offset="0" stop-opacity=".314"/><stop offset=".222" stop-opacity=".275"/><stop offset="1" stop-opacity="0"/></radialGradient><radialGradient id="d" gradientUnits="userSpaceOnUse" cx="450.909" cy="189.579" fx="450.909" fy="189.579" r="21.167" gradientTransform="matrix(0 -.31253 .56255 0 -73.572 254.381)"><stop offset="0" stop-opacity=".314"/><stop offset=".222" stop-opacity=".275"/><stop offset="1" stop-opacity="0"/></radialGradient><radialGradient id="e" gradientUnits="userSpaceOnUse" cx="450.909" cy="189.579" fx="450.909" fy="189.579" r="21.167" gradientTransform="matrix(0 .31253 -.56255 0 200.584 -30.11)"><stop offset="0" stop-opacity=".314"/><stop offset=".222" stop-opacity=".275"/><stop offset="1" stop-opacity="0"/></radialGradient><linearGradient id="f" gradientUnits="userSpaceOnUse" x1="243.417" y1="233.5" x2="243.417" y2="-168.667" gradientTransform="matrix(.25002 0 0 .25002 -7.938 53.755)"><stop offset="0" stop-color="#e0e0e0"/><stop offset="1" stop-color="#f5f5f5"/></linearGradient><linearGradient id="g" gradientUnits="userSpaceOnUse" x1="211.667" y1="-31.083" x2="211.667" y2="95.917" gradientTransform="translate(42.333)"><stop offset="0" stop-color="#ef5350"/><stop offset="1" stop-color="#f44336"/></linearGradient><linearGradient id="h" gradientUnits="userSpaceOnUse" x1="211.667" y1="-31.083" x2="211.667" y2="95.917" gradientTransform="matrix(.2353 0 0 -.2353 98.362 192.569)"><stop offset="0" stop-color="#ef5350"/><stop offset="1" stop-color="#f44336"/></linearGradient><linearGradient id="i" gradientUnits="userSpaceOnUse" x1="370.417" y1="-94.583" x2="370.417" y2="-147.5" gradientTransform="matrix(3.77953 0 0 3.77953 0 812.598)"><stop offset="0" stop-color="#ef5350"/><stop offset="1" stop-color="#f44336"/></linearGradient></defs><path d="M31.754 112.824h63.504v3.875H31.754zm0 0" fill="url(#a)"/><path d="M95.258 112.137h10.586v-5.293H95.258zm0 0" fill="url(#b)"/><path d="M31.754 112.137H21.168v5.293h10.586zm0 0" fill="url(#c)"/><path d="M31.754 112.137H21.168v-5.293h10.586zm0 0" fill="url(#d)"/><path d="M95.258 112.137h10.586v5.293H95.258zm0 0" fill="url(#e)"/><path d="M29.105 11.586h68.801a5.291 5.291 0 0 1 5.293 5.289v89.969a5.295 5.295 0 0 1-5.293 5.293h-68.8a5.291 5.291 0 0 1-5.29-5.293V16.875a5.288 5.288 0 0 1 5.29-5.29zm0 0" fill="url(#f)"/><path d="M29.105 11.586c-2.93 0-5.289 2.36-5.289 5.289v1.324c0-2.93 2.36-5.293 5.29-5.293h68.8A5.285 5.285 0 0 1 103.2 18.2v-1.324c0-2.93-2.363-5.29-5.293-5.29zm0 0" fill="#fff" fill-opacity=".392"/><path d="M29.105 112.137c-2.93 0-5.289-2.36-5.289-5.293v-1.324a5.279 5.279 0 0 0 5.29 5.293h68.8c2.93 0 5.293-2.36 5.293-5.293v1.324a5.282 5.282 0 0 1-5.293 5.293zm0 0" fill-opacity=".235"/><path d="M29.105 11.21a5.658 5.658 0 0 0-5.664 5.665v89.969a5.661 5.661 0 0 0 5.664 5.668h68.801a5.661 5.661 0 0 0 5.664-5.668V16.875a5.658 5.658 0 0 0-5.664-5.664zm0 .75h68.801a4.893 4.893 0 0 1 4.914 4.915v89.969a4.896 4.896 0 0 1-4.914 4.918h-68.8a4.896 4.896 0 0 1-4.915-4.918V16.875a4.893 4.893 0 0 1 4.914-4.914zm0 0" fill="#212121"/><path d="M216.964-31.08A36.953 36.953 0 0 0 179.92 5.963v.906c.016.079.016.157.016.235 0 .25.016.5.031.75V7.9c1.797 36.2 53.23 67.212 74.04 88.022 20.795-20.81 72.243-51.823 74.024-88.022v-.047c.016-.25.031-.5.031-.75 0-.078 0-.156.016-.235v-.906a36.953 36.953 0 0 0-37.043-37.043c-20.514 0-37.028 16.514-37.028 37.043 0-20.529-16.53-37.043-37.043-37.043zm0 0" transform="matrix(.25002 0 0 .25002 0 53.755)" fill="url(#g)" stroke-width="3" stroke-linecap="round" stroke-linejoin="round" stroke="#212121"/><path d="M139.455 199.882a8.701 8.701 0 0 1-8.717-8.718v-.218-.047c0-.063 0-.125.015-.172v-.016c.422-8.515 12.515-15.81 17.42-20.717 4.89 4.906 16.999 12.202 17.42 20.717V191.164a8.692 8.692 0 0 1-8.717 8.718 8.688 8.688 0 0 1-8.703-8.718 8.701 8.701 0 0 1-8.718 8.718zm0 0" transform="matrix(.25002 0 0 .25002 0 53.755)" fill="url(#h)" stroke-width="3" stroke-linecap="round" stroke-linejoin="round" stroke="#212121"/><path d="M1379.986 255.094c-33.244 0-59.994 31.237-59.994 70.032v99.971a19.96 19.96 0 0 0 20.018 20.018c11.042 0 20.018-8.916 20.018-20.018v-49.956h79.953v49.956a19.96 19.96 0 0 0 20.017 20.018 19.96 19.96 0 0 0 20.018-20.018v-99.97c0-38.796-26.75-70.033-59.994-70.033zm0 40.035h40.036c11.042 0 19.959 13.345 19.959 29.997v20.018h-79.953v-20.018c0-16.652 8.916-29.997 19.958-29.997zm0 0" transform="scale(.06615)" fill="url(#i)" stroke-width="11.339" stroke-linecap="round" stroke-linejoin="round" stroke="#212121"/></svg>
